X:130
T:Up The Creek Without A Paddle
R:reel
C:Bruce Osborne - June 2002
Z:bosborne@kos.net
M:2/4
L:1/8
K:Amaj
E/G/|AA/c/ B/A/G/B/|A/c/e/c/ f/c/e/c/|B/E/c/E/ d/E/c/E/|B/A/G/A/ B/d/c/B/|
AA/c/ B/A/G/B/|A/c/e/c/ f/c/e/c/|B/E/c/E/ d/E/c/E/|B/E/G/B/ A:|
A/G/|FF/E/ F/A/G/F/|E/F/E/D/ EA/G/|FF/E/ F/A/G/A/|B/c/B/A/ B/d/c/B/|
AA/c/ B/A/G/B/|A/c/e/c/ f/c/e/c/|B/E/c/E/ d/E/c/E/|B/E/G/B/ A:|
